X:502
T:Polska # 502
T: efter Melker Andersson
Q: 110
M:3/4
L:1/16
K: A
A2A2 c2Ac e2a2| A2A2 c2Ac e2f2| e2e2 d2d2 c2c2| B2B2 A2ce a4|
A2A2 c2Ac e2a2| A2A2 c2Ac e2f2| e2e2 d2d2 c2c2|1 (BcB2) A8:|2 (BcB2) A6 A2||
|: A3B B2B2 B2B2| B3c c2c2 c2c2| A3d d2d2 d2d2| d2f2 f2ed e2e2|
e2fg a2ed c2Ac|1 B2GB A6 A2 :|2 B2GB A8 ||

